X: 23228
T: Leary's Pound Note
R: polka
M: 2/4
K: Ddorian
|:A,D DE|FG AG|FD DF|EF/E/ DC|
A,D DE|FG AG|FD EC|D2 D2:|
|:Ad de|f2 ed|cA AB|c2 BA|
Ad de|f2 ed|cA AF|D2 D2:|

